icons/bell-slash-24.svg

<svg width="24" height="24" viewBox="0 0 24 24" fill="none" xmlns="http://www.w3.org/2000/svg">
<path fill-rule="evenodd" clip-rule="evenodd" d="M1.21967 1.21967C1.51256 0.926777 1.98744 0.926777 2.28033 1.21967L22.7803 21.7197C23.0732 22.0126 23.0732 22.4874 22.7803 22.7803C22.4874 23.0732 22.0126 23.0732 21.7197 22.7803L17.9393 19H15.5C15.5 20.933 13.933 22.5 12 22.5C10.067 22.5 8.5 20.933 8.5 19H3.51759C2.67945 19 2 18.3206 2 17.4824C2 17.1828 2.08869 16.8899 2.25488 16.6406L4.45416 13.3417C4.81008 12.8078 5 12.1805 5 11.5389V7C5 6.70608 5.02504 6.41688 5.07334 6.134L1.21967 2.28033C0.926777 1.98744 0.926777 1.51256 1.21967 1.21967ZM10 19C10 20.1046 10.8954 21 12 21C13.1046 21 14 20.1046 14 19H10ZM6.5 7.56066L16.4393 17.5H3.51759C3.51378 17.5 3.51097 17.4989 3.51097 17.4989C3.51097 17.4989 3.50729 17.497 3.50515 17.4948C3.50302 17.4927 3.50107 17.489 3.50107 17.489C3.50107 17.489 3.5 17.4862 3.5 17.4824C3.5 17.4789 3.50103 17.4755 3.50295 17.4726L5.70224 14.1737C6.22242 13.3935 6.5 12.4767 6.5 11.5389V7.56066Z" fill="#24292E"/>
<path d="M12 2.5C10.5366 2.5 9.19967 2.98466 8.21215 3.75728L8.17233 3.78874C7.84854 4.04708 7.37664 3.99403 7.11831 3.67024C6.85997 3.34646 6.91302 2.87456 7.23681 2.61622C7.25375 2.60271 7.27076 2.58926 7.28785 2.5759C8.5464 1.59123 10.2108 1 12 1C15.6815 1 19 3.56545 19 7V11.5389C19 12.1805 19.1899 12.8078 19.5458 13.3417L20.874 15.334C21.1038 15.6786 21.0107 16.1443 20.666 16.374C20.3214 16.6038 19.8557 16.5107 19.626 16.166L18.2978 14.1737C17.7776 13.3935 17.5 12.4767 17.5 11.5389V7C17.5 4.63556 15.1175 2.5 12 2.5Z" fill="#24292E"/>
</svg>

<svg xmlns="http://www.w3.org/2000/svg" width="24" height="24" viewBox="0 0 24 24"><path fill-rule="evenodd" d="M1.22 1.22a.75.75 0 011.06 0l20.5 20.5a.75.75 0 11-1.06 1.06L17.94 19H15.5a3.5 3.5 0 11-7 0H3.518a1.518 1.518 0 01-1.263-2.36l2.2-3.298A3.25 3.25 0 005 11.539V7c0-.294.025-.583.073-.866L1.22 2.28a.75.75 0 010-1.06zM10 19a2 2 0 104 0h-4zM6.5 7.56l9.94 9.94H3.517l-.007-.001-.006-.004-.004-.006-.001-.007.003-.01 2.2-3.298a4.75 4.75 0 00.797-2.635V7.56z"/><path d="M12 2.5c-1.463 0-2.8.485-3.788 1.257l-.04.032a.75.75 0 11-.935-1.173l.05-.04C8.548 1.59 10.212 1 12 1c3.681 0 7 2.565 7 6v4.539c0 .642.19 1.269.546 1.803l1.328 1.992a.75.75 0 11-1.248.832l-1.328-1.992a4.75 4.75 0 01-.798-2.635V7c0-2.364-2.383-4.5-5.5-4.5z"/></svg>
